img/icons/project/3.svg

<svg width="52" height="51" viewBox="0 0 52 51" fill="none" xmlns="http://www.w3.org/2000/svg">
<path d="M32.7877 19.7003C34.2968 19.7003 35.5202 18.4845 35.5202 16.9847C35.5202 15.4849 34.2968 14.269 32.7877 14.269C31.2786 14.269 30.0552 15.4849 30.0552 16.9847C30.0552 18.4845 31.2786 19.7003 32.7877 19.7003Z" fill="#343434"/>
<path d="M50.7569 14.2866H47.6417C47.3908 13.5205 47.079 12.774 46.7096 12.054L48.9135 9.86383C49.3986 9.38149 49.3986 8.59988 48.9135 8.11754L43.831 3.06644C43.3457 2.58445 42.5593 2.58445 42.0739 3.06644L39.87 5.25678C39.1453 4.88963 38.3944 4.57991 37.6237 4.33039V1.23472C37.6237 0.552804 37.0675 0 36.3813 0H29.1937C28.5076 0 27.9514 0.552804 27.9514 1.23472V4.33074C27.1805 4.58026 26.4295 4.88998 25.7051 5.2573L23.5013 3.06696C23.2683 2.83536 22.9523 2.70521 22.6228 2.70521C22.2933 2.70521 21.9774 2.83519 21.7442 3.06679L16.6623 8.11754C16.1771 8.59988 16.1771 9.38149 16.6623 9.86365L18.866 12.054C18.4968 12.774 18.1851 13.5203 17.9339 14.2866H14.819C14.1329 14.2866 13.5767 14.8394 13.5767 15.5213V22.6646C13.5767 23.3465 14.1329 23.8994 14.819 23.8994H17.9341C18.1851 24.6655 18.4968 25.4116 18.8662 26.1316L16.6625 28.322C16.4294 28.5536 16.2985 28.8676 16.2985 29.1951C16.2985 29.5226 16.4293 29.8365 16.6625 30.0682L21.7451 35.1194C22.23 35.6013 23.0167 35.6013 23.502 35.1194L25.7058 32.9292C26.4304 33.2963 27.1813 33.6061 27.9522 33.8556V36.9516C27.9522 37.6335 28.5085 38.1863 29.1946 38.1863H36.3822C37.0684 38.1863 37.6246 37.6335 37.6246 36.9516V33.8556C38.3953 33.6062 39.1462 33.2965 39.8709 32.9292L42.0748 35.1195C42.5601 35.6015 43.3466 35.6015 43.8319 35.1195L48.9144 30.0684C49.3995 29.5861 49.3995 28.8045 48.9144 28.3221L46.7104 26.132C47.0798 25.4118 47.3915 24.6657 47.6426 23.8995H50.7578C51.4439 23.8995 52.0002 23.3467 52.0002 22.6648V15.5213C51.9993 14.8394 51.4431 14.2866 50.7569 14.2866ZM32.788 27.5621C28.0891 27.5621 24.2662 23.7629 24.2662 19.0931C24.2662 14.4232 28.0891 10.6239 32.788 10.6239C37.4868 10.6239 41.3095 14.4232 41.3095 19.0931C41.3095 23.7629 37.4868 27.5621 32.788 27.5621Z" fill="#343434"/>
<path d="M19.6107 37.5772H18.4473C18.3935 37.4384 18.3361 37.3008 18.2752 37.1649L19.098 36.3469C19.5832 35.8647 19.5832 35.0831 19.098 34.6008L16.5004 32.0191C16.0154 31.5375 15.2287 31.5371 14.7434 32.0191L13.9204 32.8369C13.7836 32.7764 13.6451 32.7193 13.5054 32.6659V31.5096C13.5054 30.8277 12.9492 30.2749 12.263 30.2749H8.58966C7.90352 30.2749 7.34728 30.8277 7.34728 31.5096V32.6659C7.20757 32.7193 7.06908 32.7764 6.93234 32.8369L6.10928 32.0191C5.62431 31.5371 4.83767 31.5371 4.35234 32.0191L1.75466 34.6008C1.26951 35.0831 1.26951 35.8647 1.75466 36.3469L2.57755 37.1649C2.51662 37.3008 2.45919 37.4384 2.40544 37.5772H1.24238C0.556233 37.5772 0 38.1301 0 38.812V42.4631C0 43.145 0.556233 43.6978 1.24238 43.6978H2.40579C2.45954 43.8366 2.51697 43.9741 2.5779 44.11L1.75501 44.928C1.26986 45.4101 1.26986 46.1917 1.75501 46.6741L4.35269 49.2557C4.83802 49.7377 5.62448 49.7377 6.10981 49.2557L6.93269 48.4378C7.06943 48.4985 7.20792 48.5556 7.34763 48.609V49.7652C7.34763 50.4471 7.90387 50.9999 8.59001 50.9999H12.2636C12.9497 50.9999 13.5059 50.4471 13.5059 49.7652V48.609C13.6457 48.5556 13.7841 48.4985 13.9209 48.4379L14.7439 49.2557C15.2289 49.7377 16.0156 49.7377 16.5009 49.2557L19.0986 46.6741C19.5837 46.1917 19.5837 45.4101 19.0986 44.928L18.2757 44.11C18.3366 43.9741 18.394 43.8366 18.4478 43.6978H19.6112C20.2973 43.6978 20.8536 43.145 20.8536 42.4631V38.812C20.8529 38.1299 20.2968 37.5772 19.6107 37.5772ZM10.4264 44.8704C8.0779 44.8704 6.16706 42.9713 6.16706 40.6372C6.16706 38.3032 8.0779 36.4041 10.4264 36.4041C12.775 36.4041 14.6858 38.3032 14.6858 40.6372C14.6858 42.9713 12.775 44.8704 10.4264 44.8704Z" fill="#343434"/>
<path d="M35.8511 21.2071L35.0353 20.9585L32.7881 22.0204L30.5409 20.9585L29.725 21.2071C28.8584 21.4942 28.2549 22.2639 28.1738 23.1553C29.3122 24.4091 30.9588 25.1989 32.7881 25.1989C34.6172 25.1989 36.264 24.4091 37.4024 23.1551C37.3213 22.2637 36.7178 21.4942 35.8511 21.2071Z" fill="#343434"/>
</svg>

<svg width="52" height="51" fill="none" xmlns="http://www.w3.org/2000/svg"><path d="M32.788 19.7a2.724 2.724 0 0 0 2.732-2.715c0-1.5-1.223-2.716-2.732-2.716a2.724 2.724 0 0 0-2.733 2.716c0 1.5 1.224 2.715 2.733 2.715z" fill="#343434"/><path d="M50.757 14.287h-3.115a15.373 15.373 0 0 0-.932-2.233l2.203-2.19a1.23 1.23 0 0 0 0-1.746l-5.082-5.052a1.248 1.248 0 0 0-1.757 0l-2.204 2.19a15.608 15.608 0 0 0-2.246-.926V1.235C37.624.553 37.068 0 36.38 0h-7.187a1.24 1.24 0 0 0-1.243 1.235V4.33c-.77.25-1.521.559-2.246.926L23.5 3.066a1.246 1.246 0 0 0-1.757 0l-5.082 5.05a1.23 1.23 0 0 0 0 1.747l2.204 2.19c-.37.72-.68 1.466-.932 2.233h-3.115c-.686 0-1.242.552-1.242 1.234v7.144c0 .681.556 1.234 1.242 1.234h3.115c.251.767.563 1.513.932 2.233l-2.203 2.19a1.23 1.23 0 0 0 0 1.746l5.082 5.051a1.248 1.248 0 0 0 1.757 0l2.204-2.19c.724.367 1.475.677 2.246.927v3.096c0 .681.556 1.234 1.243 1.234h7.187a1.24 1.24 0 0 0 1.243-1.234v-3.096c.77-.25 1.521-.56 2.246-.927l2.204 2.19a1.248 1.248 0 0 0 1.757 0l5.082-5.05a1.23 1.23 0 0 0 0-1.747l-2.204-2.19a15.4 15.4 0 0 0 .933-2.233h3.115c.686 0 1.242-.552 1.242-1.234V15.52a1.24 1.24 0 0 0-1.243-1.234zM32.788 27.562c-4.699 0-8.522-3.8-8.522-8.469 0-4.67 3.823-8.47 8.522-8.47s8.522 3.8 8.522 8.47c0 4.67-3.823 8.47-8.522 8.47zM19.61 37.577h-1.163a8.677 8.677 0 0 0-.172-.412l.823-.818a1.23 1.23 0 0 0 0-1.746L16.5 32.019a1.249 1.249 0 0 0-1.757 0l-.823.818a8.758 8.758 0 0 0-.415-.171V31.51c0-.682-.556-1.235-1.242-1.235H8.59a1.24 1.24 0 0 0-1.243 1.235v1.156c-.14.053-.278.11-.415.17l-.823-.817a1.248 1.248 0 0 0-1.757 0l-2.597 2.582a1.23 1.23 0 0 0 0 1.746l.823.818a8.741 8.741 0 0 0-.173.412H1.242C.556 37.577 0 38.13 0 38.812v3.651c0 .682.556 1.235 1.242 1.235h1.164c.054.139.111.276.172.412l-.823.818a1.23 1.23 0 0 0 0 1.746l2.598 2.582a1.248 1.248 0 0 0 1.757 0l.823-.818a8.4 8.4 0 0 0 .415.171v1.156c0 .682.556 1.235 1.242 1.235h3.674c.686 0 1.242-.553 1.242-1.235V48.61c.14-.053.278-.11.415-.171l.823.818a1.248 1.248 0 0 0 1.757 0l2.598-2.582a1.23 1.23 0 0 0 0-1.746l-.823-.818c.06-.136.118-.273.172-.412h1.163a1.24 1.24 0 0 0 1.243-1.235v-3.651a1.24 1.24 0 0 0-1.243-1.235zm-9.184 7.293c-2.348 0-4.259-1.899-4.259-4.233 0-2.334 1.91-4.233 4.26-4.233 2.348 0 4.259 1.9 4.259 4.233 0 2.334-1.911 4.233-4.26 4.233z" fill="#343434"/><path d="M35.851 21.207l-.816-.248-2.247 1.061-2.247-1.061-.816.248a2.272 2.272 0 0 0-1.551 1.948 6.218 6.218 0 0 0 4.614 2.044c1.83 0 3.476-.79 4.614-2.044a2.272 2.272 0 0 0-1.55-1.948z" fill="#343434"/></svg>
